X: 1
T: Humours Of Loughrea, The
M: 4/4
L: 1/8
R: reel
K: Gmaj
| G2 GA BA A2 | bgag egdB | G2 GA BAGE | ABAG EDB,D 
| G2 GA BA A2 | bgag egdB | G2 GA BAGE | ABAG ED D2 |
| g2 eg fdBd | ge e2 gaba | ge e2 edBd | egfg edef 
| g2 fg edBd | ge e2 gaba | g2 ge a2 af | dgbg egdB |
